public/icons/arrowDownIcon.svg

<svg width="30" height="28" viewBox="0 0 30 28" fill="none" xmlns="http://www.w3.org/2000/svg">
<rect x="30" width="28" height="30" rx="4" transform="rotate(90 30 0)" fill="#171717"/>
<path d="M14.6982 16.8782V16.7686L14.7788 16.6943L21.0196 10.9463C21.0197 10.9461 21.0199 10.946 21.02 10.9459C21.0881 10.8827 21.1681 10.8335 21.2547 10.8003C21.3415 10.767 21.434 10.75 21.527 10.75C21.6199 10.75 21.7124 10.767 21.7992 10.8003C21.886 10.8336 21.9661 10.8829 22.0343 10.9463L22.0343 10.9463L22.0354 10.9473C22.1703 11.074 22.25 11.2489 22.25 11.4357C22.25 11.6225 22.1703 11.7974 22.0354 11.9241L22.0354 11.9242L22.0337 11.9257L14.9847 18.427L14.9848 18.427L14.9799 18.4313C14.8753 18.5229 14.7463 18.5824 14.6094 18.6053C14.4726 18.6282 14.3312 18.614 14.202 18.5637L14.2019 18.5638L14.1926 18.5598C14.1301 18.5325 14.0717 18.4967 14.0192 18.4532L14.019 18.4534L14.0095 18.4447L6.95097 11.9522L6.9509 11.9523L6.94559 11.9471C6.81478 11.8194 6.73812 11.6462 6.73812 11.462C6.73812 11.2777 6.81478 11.1045 6.94559 10.9768L6.94553 10.9768L6.9501 10.9725C7.01833 10.9092 7.09841 10.8599 7.18523 10.8265C7.27203 10.7932 7.3645 10.7763 7.45747 10.7763C7.55044 10.7763 7.64291 10.7932 7.72971 10.8265C7.81631 10.8598 7.8962 10.9089 7.96432 10.972C7.96449 10.9722 7.96466 10.9724 7.96484 10.9725L14.1676 16.6856L14.2482 16.7598V16.8695V17.2746C14.3206 17.2522 14.3966 17.2407 14.4732 17.2407C14.5498 17.2407 14.6258 17.2522 14.6982 17.2746V16.8782Z" fill="#F0B270" stroke="#F0B270" stroke-width="0.5"/>
</svg>

<svg width="30" height="28" fill="none" xmlns="http://www.w3.org/2000/svg"><rect x="30" width="28" height="30" rx="4" transform="rotate(90 30 0)" fill="#171717"/><path d="M14.698 16.878v-.11l.08-.074 6.242-5.748a.76.76 0 0 1 1.014 0l.001.001a.67.67 0 0 1 .215.489.67.67 0 0 1-.215.488l-.001.002-7.05 6.501-.004.004a.773.773 0 0 1-.778.132l-.01-.003a.729.729 0 0 1-.173-.107l-.01-.008-7.058-6.493-.005-.005a.678.678 0 0 1-.208-.485c0-.184.077-.357.208-.485l.004-.005a.732.732 0 0 1 .507-.196.76.76 0 0 1 .508.197l6.203 5.713.08.074v.515a.762.762 0 0 1 .45 0v-.397Z" fill="#F0B270" stroke="#F0B270" stroke-width=".5"/></svg>
